X:2808
T:The Cumbrae Reel
P:Willie was a Wanton Wag
C:Burns
R:Reel (8x32)
B:RSCDS 28-8
Z:Anselm Lingnau <anselm@strathspey.org>
M:C|
L:1/8
K:D
B/A/G|"D"F2A2 A2Bc|dcde dBAG|F2A2 A2ef|"Em"gfed "A7"B2 B/A/G|
  "D"F2A2 A2Bc|d>cde dBAG|F2A2 A2"G"g2|"A7"faec "D"d2 z||
g|"D"f3a "A7"e3f|"D"dcde gfed|fgaf "Em"e2ef|gfed "A7"B3g|
  "D"fagf "A7"egfe|"Bm"d>cde "A7"f>efg|"D"a2A2 A2"G"g2|"A7"faec "D"d2|]

